common/src/main/resources/glyphs/plugins/ruby/expui/factoryBot/overridenFactory.svg

<svg xmlns="http://www.w3.org/2000/svg" width="16" height="16" fill="#7986CB" data-big="true" viewBox="0 0 24 24"><path d="M4 18v2h4v-2zm0-4v2h10v-2zm6 4v2h4v-2zm6-4v2h4v-2zm0 4v2h4v-2zM2 22V8l5 4V8l5 4V8l5 4 1-10h3l1 10v10z"/><path fill="#64B5F6" d="M16.5 0h3v6.75l2.625-2.625L23.94 5.94 18 11.88l-5.94-5.94 1.815-1.815L16.5 6.75z"/></svg>

<!--
  - The MIT License (MIT)
  -
  - Copyright (c) 2015-2024 Elior "Mallowigi" Boukhobza
  -
  - Permission is hereby granted, free of charge, to any person obtaining a copy
  - of this software and associated documentation files (the "Software"), to deal
  - in the Software without restriction, including without limitation the rights
  - to use, copy, modify, merge, publish, distribute, sublicense, and/or sell
  - copies of the Software, and to permit persons to whom the Software is
  - furnished to do so, subject to the following conditions:
  -
  - The above copyright notice and this permission notice shall be included in all
  - copies or substantial portions of the Software.
  -
  - THE SOFTWARE IS PROVIDED "AS IS", WITHOUT WARRANTY OF ANY KIND, EXPRESS OR
  - IMPLIED, INCLUDING BUT NOT LIMITED TO THE WARRANTIES OF MERCHANTABILITY,
  - FITNESS FOR A PARTICULAR PURPOSE AND NONINFRINGEMENT. IN NO EVENT SHALL THE
  - AUTHORS OR COPYRIGHT HOLDERS BE LIABLE FOR ANY CLAIM, DAMAGES OR OTHER
  - LIABILITY, WHETHER IN AN ACTION OF CONTRACT, TORT OR OTHERWISE, ARISING FROM,
  - OUT OF OR IN CONNECTION WITH THE SOFTWARE OR THE USE OR OTHER DEALINGS IN THE
  - SOFTWARE.
  -->


<svg data-big="true" xmlns="http://www.w3.org/2000/svg" version="1.1" width="16px" height="16px" viewBox="0 0 24 24"
     fill="#7986CB">
  <path fill="#7986CB"
        d="M4,18V20H8V18H4M4,14V16H14V14H4M10,18V20H14V18H10M16,14V16H20V14H16M16,18V20H20V18H16M2,22V8L7,12V8L12,12V8L17,12L18,2H21L22,12V22H2Z"
        transform="scale(1)"/>
  <path fill="#64B5F6" transform="scale(0.75) translate(12 -4)"
        d="M10,4H14V13L17.5,9.5L19.92,11.92L12,19.84L4.08,11.92L6.5,9.5L10,13V4Z"/>
</svg>
